app/dist/common/images/tianshui-huatian-t.svg

<svg height="18" viewBox="0 0 18 18" width="18" xmlns="http://www.w3.org/2000/svg"><path d="m0 0h18v18h-18z" fill="#f0f3fa"/><path d="m13.82 12.07c.73-1.31-.85-3.53-3.51-4.95-2.67-1.42-5.41-1.5-6.13-.19-.73 1.31.85 3.53 3.51 4.95 2.67 1.42 5.41 1.5 6.13.19zm-.45-.6c.06-1.2-1.28-2.91-3.43-4.09a8.19 8.19 0 0 0 -3.81-1.08c-.9 0-1.58.28-1.87.82-.64 1.2.87 3.24 3.36 4.6 2.5 1.38 4.97 1.51 5.6.31.1-.17.15-.35.15-.55z" fill="#183887" fill-rule="evenodd"/><path d="m5.98 7.74-.98 2.26 6-5zm3.77.38-4.27 5.88 2.34-5.69 4.18-3.29-1.77 2.44a.63.63 0 0 0 -.48.66zm.41.45-2.16 3.4 2.95-1.1 2.11-6.87-2.25 3.54c.16.11.26.3.26.52 0 .35-.26.63-.57.63a.53.53 0 0 1 -.34-.12z" fill="#183887"/><circle cx="10.5" cy="7.5" fill="#db2220" r=".5"/></svg>

<!-- by TradingView --><svg width="18" height="18" viewBox="0 0 18 18" xmlns="http://www.w3.org/2000/svg"><path fill="#F0F3FA" d="M0 0h18v18H0z"/><path fill-rule="evenodd" d="M13.82 12.07c.73-1.31-.85-3.53-3.51-4.95-2.67-1.42-5.41-1.5-6.13-.19-.73 1.31.85 3.53 3.51 4.95 2.67 1.42 5.41 1.5 6.13.19Zm-.45-.6c.06-1.2-1.28-2.91-3.43-4.09A8.19 8.19 0 0 0 6.13 6.3c-.9 0-1.58.28-1.87.82-.64 1.2.87 3.24 3.36 4.6 2.5 1.38 4.97 1.51 5.6.31.1-.17.15-.35.15-.55Z" fill="#183887"/><path d="M5.98 7.74 5 10l6-5-5.02 2.74ZM9.75 8.12 5.48 14l2.34-5.69L12 5.02l-1.77 2.44a.63.63 0 0 0-.48.66ZM10.16 8.57 8 11.97l2.95-1.1L13.06 4l-2.25 3.54c.16.11.26.3.26.52 0 .35-.26.63-.57.63a.53.53 0 0 1-.34-.12Z" fill="#183887"/><circle cx="10.5" cy="7.5" r=".5" fill="#DB2220"/></svg>
